Numix/16/status/indicator-keyboard-Zh-3.svg

<?xml version="1.0" encoding="UTF-8" standalone="no"?>
<svg
   xmlns:dc="http://purl.org/dc/elements/1.1/"
   xmlns:cc="http://creativecommons.org/ns#"
   xmlns:rdf="http://www.w3.org/1999/02/22-rdf-syntax-ns#"
   xmlns:svg="http://www.w3.org/2000/svg"
   xmlns="http://www.w3.org/2000/svg"
   xmlns:sodipodi="http://sodipodi.sourceforge.net/DTD/sodipodi-0.dtd"
   xmlns:inkscape="http://www.inkscape.org/namespaces/inkscape"
   viewBox="0 0 16 16"
   id="svg2"
   version="1.1"
   inkscape:version="0.91 r13725"
   sodipodi:docname="indicator-keyboard-Zh-3.svg">
  <metadata
     id="metadata14">
    <rdf:RDF>
      <cc:Work
         rdf:about="">
        <dc:format>image/svg+xml</dc:format>
        <dc:type
           rdf:resource="http://purl.org/dc/dcmitype/StillImage" />
      </cc:Work>
    </rdf:RDF>
  </metadata>
  <defs
     id="defs12" />
  <sodipodi:namedview
     pagecolor="#ffffff"
     bordercolor="#666666"
     borderopacity="1"
     objecttolerance="10"
     gridtolerance="10"
     guidetolerance="10"
     inkscape:pageopacity="0"
     inkscape:pageshadow="2"
     inkscape:window-width="640"
     inkscape:window-height="480"
     id="namedview10"
     showgrid="false"
     inkscape:zoom="14.75"
     inkscape:cx="8"
     inkscape:cy="8"
     inkscape:window-x="65"
     inkscape:window-y="24"
     inkscape:window-maximized="0"
     inkscape:current-layer="svg2" />
  <path
     style="fill:#ececec;fill-opacity:1"
     d="M 1.5996094 0 C 0.71320937 2.9605947e-16 0 0.71320937 0 1.5996094 L 0 14.400391 C 2.9605947e-16 15.286791 0.71320937 16 1.5996094 16 L 14.400391 16 C 15.286791 16 16 15.286791 16 14.400391 L 16 1.5996094 C 16 0.71320937 15.286791 0 14.400391 0 L 1.5996094 0 z M 7.7421875 4.1113281 L 7.7421875 6.578125 C 7.9341875 6.506125 8.130125 6.4520156 8.328125 6.4160156 C 8.526125 6.3740156 8.723875 6.3535156 8.921875 6.3535156 C 9.281875 6.3535156 9.5822656 6.4038594 9.8222656 6.5058594 C 10.062266 6.6078594 10.254437 6.7552656 10.398438 6.9472656 C 10.542438 7.1332656 10.641312 7.3570938 10.695312 7.6210938 C 10.755312 7.8850937 10.785156 8.1761406 10.785156 8.4941406 L 10.785156 11.095703 L 10.199219 11.095703 L 10.199219 8.6835938 C 10.199219 8.3535938 10.176906 8.0756562 10.128906 7.8476562 C 10.086906 7.6196562 10.010344 7.4330625 9.9023438 7.2890625 C 9.8003437 7.1450625 9.6622813 7.0424219 9.4882812 6.9824219 C 9.3142813 6.9164219 9.0960313 6.8847656 8.8320312 6.8847656 C 8.7300312 6.8847656 8.6180469 6.8921562 8.4980469 6.9101562 C 8.3840469 6.9281563 8.2777813 6.9506094 8.1757812 6.9746094 C 8.0737813 6.9926094 7.9804844 7.0131094 7.8964844 7.0371094 C 7.8184844 7.0611094 7.7661875 7.0797969 7.7421875 7.0917969 L 7.7421875 11.095703 L 7.1582031 11.095703 L 7.1582031 4.2207031 L 7.7421875 4.1113281 z M 1.8515625 4.859375 L 5.9296875 4.859375 L 5.9296875 5.4179688 C 5.7856875 5.5859687 5.6177812 5.7892969 5.4257812 6.0292969 C 5.2397812 6.2692969 5.0382656 6.5323125 4.8222656 6.8203125 C 4.6062656 7.1023125 4.38425 7.4064687 4.15625 7.7304688 C 3.93425 8.0484688 3.7122344 8.3711719 3.4902344 8.7011719 C 3.2742344 9.0251719 3.0671406 9.3460625 2.8691406 9.6640625 C 2.6771406 9.9820627 2.5036563 10.282453 2.3476562 10.564453 L 6.0195312 10.564453 L 6.0195312 11.095703 L 1.6816406 11.095703 L 1.6816406 10.636719 C 1.8136406 10.378719 1.9684375 10.097016 2.1484375 9.7910156 C 2.3344375 9.4790156 2.5321875 9.1618906 2.7421875 8.8378906 C 2.9521875 8.5078906 3.1723906 8.1776562 3.4003906 7.8476562 C 3.6283906 7.5176562 3.8522187 7.2023438 4.0742188 6.9023438 C 4.2962187 6.5963438 4.5070781 6.3146406 4.7050781 6.0566406 C 4.9090781 5.7986406 5.0956719 5.576625 5.2636719 5.390625 L 1.8515625 5.390625 L 1.8515625 4.859375 z M 12.949219 8.7539062 C 13.152019 8.7539062 13.326403 8.7793781 13.470703 8.8300781 C 13.618903 8.8807781 13.742344 8.953275 13.839844 9.046875 C 13.937344 9.136575 14.009841 9.2463 14.056641 9.375 C 14.103441 9.4997999 14.125 9.6350031 14.125 9.7832031 C 14.125 10.021103 14.062294 10.217041 13.933594 10.369141 C 13.808794 10.517341 13.646166 10.625106 13.447266 10.691406 C 13.556466 10.718706 13.662272 10.759859 13.763672 10.818359 C 13.868972 10.872959 13.963022 10.945456 14.044922 11.035156 C 14.126822 11.120956 14.191487 11.226762 14.242188 11.351562 C 14.292887 11.476362 14.318359 11.623316 14.318359 11.791016 C 14.318359 11.962616 14.287009 12.119372 14.224609 12.263672 C 14.166109 12.407972 14.077931 12.535331 13.957031 12.644531 C 13.840031 12.749831 13.689159 12.834084 13.505859 12.896484 C 13.322559 12.954984 13.107028 12.984375 12.861328 12.984375 C 12.732628 12.984375 12.615059 12.974578 12.505859 12.955078 C 12.400559 12.939478 12.306509 12.919884 12.224609 12.896484 C 12.142709 12.873084 12.072172 12.849572 12.013672 12.826172 C 11.959072 12.802772 11.917925 12.783178 11.890625 12.767578 L 11.990234 12.427734 C 12.013634 12.443334 12.052822 12.462928 12.107422 12.486328 C 12.162022 12.509728 12.226681 12.533241 12.300781 12.556641 C 12.378781 12.576141 12.464994 12.593775 12.558594 12.609375 C 12.656094 12.624975 12.759947 12.632813 12.873047 12.632812 C 13.243547 12.632812 13.510022 12.556397 13.669922 12.404297 C 13.829822 12.248297 13.910156 12.040597 13.910156 11.779297 C 13.910156 11.607697 13.876847 11.464663 13.810547 11.351562 C 13.748147 11.238462 13.659975 11.148331 13.546875 11.082031 C 13.437675 11.011831 13.308356 10.962847 13.160156 10.935547 C 13.015856 10.904347 12.863019 10.888672 12.699219 10.888672 L 12.640625 10.888672 L 12.640625 10.574219 L 12.775391 10.574219 C 12.880691 10.574219 12.986503 10.564422 13.095703 10.544922 C 13.208803 10.521522 13.310691 10.480375 13.400391 10.421875 C 13.493991 10.363375 13.570406 10.285 13.628906 10.1875 C 13.691306 10.09 13.722656 9.9646001 13.722656 9.8125 C 13.722656 9.6838 13.701103 9.5760281 13.658203 9.4863281 C 13.615303 9.3927281 13.556522 9.3182719 13.482422 9.2636719 C 13.412222 9.2090719 13.327969 9.1698844 13.230469 9.1464844 C 13.136869 9.1191844 13.036941 9.1054687 12.931641 9.1054688 C 12.721041 9.1054688 12.558406 9.1348594 12.441406 9.1933594 C 12.324406 9.2518594 12.228397 9.3067219 12.154297 9.3574219 L 11.990234 9.0585938 C 12.029234 9.0312937 12.078219 8.9999438 12.136719 8.9648438 C 12.199119 8.9297438 12.271616 8.8964344 12.353516 8.8652344 C 12.435416 8.8340344 12.525547 8.8085625 12.623047 8.7890625 C 12.724447 8.7656625 12.832219 8.7539062 12.949219 8.7539062 z "
     id="path4" />
</svg>

<svg xmlns="http://www.w3.org/2000/svg" viewBox="0 0 16 16">
 <path d="m 1.6 0 c -0.886 0 -1.6 0.713 -1.6 1.6 l 0 12.801 c 0 0.886 0.713 1.6 1.6 1.6 l 12.801 0 c 0.886 0 1.6 -0.713 1.6 -1.6 l 0 -12.801 c 0 -0.886 -0.713 -1.6 -1.6 -1.6 l -12.801 0 z m 6.143 4.111 l 0 2.467 c 0.192 -0.072 0.388 -0.126 0.586 -0.162 c 0.198 -0.042 0.396 -0.063 0.594 -0.063 c 0.36 0 0.66 0.05 0.9 0.152 c 0.24 0.102 0.432 0.249 0.576 0.441 c 0.144 0.186 0.243 0.41 0.297 0.674 c 0.06 0.264 0.09 0.555 0.09 0.873 l 0 2.602 l -0.586 0 l 0 -2.412 c 0 -0.33 -0.022 -0.608 -0.07 -0.836 c -0.042 -0.228 -0.119 -0.415 -0.227 -0.559 c -0.102 -0.144 -0.24 -0.247 -0.414 -0.307 c -0.174 -0.066 -0.392 -0.098 -0.656 -0.098 c -0.102 0 -0.214 0.007 -0.334 0.025 c -0.114 0.018 -0.22 0.04 -0.322 0.064 c -0.102 0.018 -0.195 0.038 -0.279 0.063 c -0.078 0.024 -0.13 0.043 -0.154 0.055 l 0 4 l -0.584 0 l 0 -6.875 l 0.584 -0.109 z m -5.891 0.748 l 4.078 0 l 0 0.559 c -0.144 0.168 -0.312 0.371 -0.504 0.611 c -0.186 0.24 -0.388 0.503 -0.604 0.791 c -0.216 0.282 -0.438 0.586 -0.666 0.91 c -0.222 0.318 -0.444 0.641 -0.666 0.971 c -0.216 0.324 -0.423 0.645 -0.621 0.963 c -0.192 0.318 -0.365 0.618 -0.521 0.9 l 3.672 0 l 0 0.531 l -4.338 0 l 0 -0.459 c 0.132 -0.258 0.287 -0.54 0.467 -0.846 c 0.186 -0.312 0.384 -0.629 0.594 -0.953 c 0.21 -0.33 0.43 -0.66 0.658 -0.99 c 0.228 -0.33 0.452 -0.645 0.674 -0.945 c 0.222 -0.306 0.433 -0.588 0.631 -0.846 c 0.204 -0.258 0.391 -0.48 0.559 -0.666 l -3.412 0 l 0 -0.531 z m 11.1 3.895 c 0.203 0 0.377 0.025 0.521 0.076 c 0.148 0.051 0.272 0.123 0.369 0.217 c 0.098 0.09 0.17 0.199 0.217 0.328 c 0.047 0.125 0.068 0.26 0.068 0.408 c 0 0.238 -0.063 0.434 -0.191 0.586 c -0.125 0.148 -0.287 0.256 -0.486 0.322 c 0.109 0.027 0.215 0.068 0.316 0.127 c 0.105 0.055 0.199 0.127 0.281 0.217 c 0.082 0.086 0.147 0.192 0.197 0.316 c 0.051 0.125 0.076 0.272 0.076 0.439 c 0 0.172 -0.031 0.328 -0.094 0.473 c -0.058 0.144 -0.147 0.272 -0.268 0.381 c -0.117 0.105 -0.268 0.19 -0.451 0.252 c -0.183 0.059 -0.399 0.088 -0.645 0.088 c -0.129 0 -0.246 -0.01 -0.355 -0.029 c -0.105 -0.016 -0.199 -0.035 -0.281 -0.059 c -0.082 -0.023 -0.152 -0.047 -0.211 -0.07 c -0.055 -0.023 -0.096 -0.043 -0.123 -0.059 l 0.1 -0.34 c 0.023 0.016 0.063 0.035 0.117 0.059 c 0.055 0.023 0.119 0.047 0.193 0.07 c 0.078 0.019 0.164 0.037 0.258 0.053 c 0.098 0.016 0.201 0.023 0.314 0.023 c 0.37 0 0.637 -0.076 0.797 -0.229 c 0.16 -0.156 0.24 -0.364 0.24 -0.625 c 0 -0.172 -0.033 -0.315 -0.1 -0.428 c -0.062 -0.113 -0.151 -0.203 -0.264 -0.27 c -0.109 -0.07 -0.239 -0.119 -0.387 -0.146 c -0.144 -0.031 -0.297 -0.047 -0.461 -0.047 l -0.059 0 l 0 -0.314 l 0.135 0 c 0.105 0 0.211 -0.01 0.32 -0.029 c 0.113 -0.023 0.215 -0.065 0.305 -0.123 c 0.094 -0.059 0.17 -0.137 0.229 -0.234 c 0.062 -0.098 0.094 -0.223 0.094 -0.375 c 0 -0.129 -0.022 -0.236 -0.064 -0.326 c -0.043 -0.094 -0.102 -0.168 -0.176 -0.223 c -0.07 -0.055 -0.154 -0.094 -0.252 -0.117 c -0.094 -0.027 -0.194 -0.041 -0.299 -0.041 c -0.211 0 -0.373 0.029 -0.49 0.088 c -0.117 0.059 -0.213 0.113 -0.287 0.164 l -0.164 -0.299 c 0.039 -0.027 0.088 -0.059 0.146 -0.094 c 0.062 -0.035 0.135 -0.068 0.217 -0.1 c 0.082 -0.031 0.172 -0.057 0.27 -0.076 c 0.101 -0.023 0.209 -0.035 0.326 -0.035 z" style="fill:#ececec;fill-opacity:1"/>
</svg>
